24x24/actions/kt-chunks.svg

<svg xmlns="http://www.w3.org/2000/svg" width="24" height="24"><path style="fill:currentColor;fill-opacity:1;stroke:none;color:#555e70" d="M3 3v16h16V3H3zm1 1h1v14H4V4zm3 0h2v14H7V4zm3 0h1v14h-1V4zm3 0h2v14h-2V4zm3 0h2v14h-2V4z" transform="translate(1 1)"/></svg>

<svg xmlns="http://www.w3.org/2000/svg" viewBox="0 0 24 24" width="24" height="24">
  <defs id="defs3051">
    <style type="text/css" id="current-color-scheme">
      .ColorScheme-Text {
        color:#555e70;
      }
      </style>
  </defs>
  <g transform="translate(1,1)">
    <path style="fill:currentColor;fill-opacity:1;stroke:none" d="M 3 3 L 3 19 L 19 19 L 19 3 L 3 3 z M 4 4 L 5 4 L 5 18 L 4 18 L 4 4 z M 7 4 L 9 4 L 9 18 L 7 18 L 7 4 z M 10 4 L 11 4 L 11 18 L 10 18 L 10 4 z M 13 4 L 15 4 L 15 18 L 13 18 L 13 4 z M 16 4 L 18 4 L 18 18 L 16 18 L 16 4 z " class="ColorScheme-Text"/>
  </g>
</svg>
